X:5898
T:Gan Ainm
R:strathspey
S:Tommy Peoples & Dermot Byrnes
H:
N:
D:Concert, Galway 
Z:Adrian Scahill
M:4/4
L:1/8
K:D
d|c<A A>G E<A A>d|c<A AE abae|c<A A>G E<A A>=c|B<A GB dged:||\
K:G\
c2 (3cBc gedB|(3cdc Ab aged|c2cd efge|dBGB dged|\
c2 (3cBc gedB|(3cdc Ab a2ga|(3bag (3agf gage|dBGB dged||


